svg/u1fae1.svg

<svg viewBox="0 0 128 128" xmlns="http://www.w3.org/2000/svg" xmlns:xlink="http://www.w3.org/1999/xlink">
  <radialGradient id="face_1_" cx="63.6" cy="-2382.8486" gradientTransform="matrix(1 0 0 -1 0 -2316.9487)" gradientUnits="userSpaceOnUse" r="56.9597">
    <stop offset="0.5" stop-color="#FDE030"/>
    <stop offset="0.9188" stop-color="#F7C02B"/>
    <stop offset="1" stop-color="#F4A223"/>
  </radialGradient>
  <path id="face_8_" d="M63.6,121.8c-27.9,0-58-17.5-58-55.9S35.7,10,63.6,10c15.5,0,29.8,5.1,40.4,14.4 c11.5,10.2,17.6,24.6,17.6,41.5s-6.1,31.2-17.6,41.4C93.4,116.6,79,121.8,63.6,121.8z" fill="url(#face_1_)"/>
  <path d="M111.49,32.67c5.33,8.6,8.11,18.84,8.11,30.23c0,16.9-6.1,31.2-17.6,41.4 c-10.6,9.3-25,14.5-40.4,14.5c-18.06,0-37.04-7.35-48.18-22.94c10.76,17.66,30.99,25.94,50.18,25.94c15.4,0,29.8-5.2,40.4-14.5 c11.5-10.2,17.6-24.5,17.6-41.4C121.6,53.16,118.13,41.84,111.49,32.67z" fill="#EB8F00"/>
  <path d="M84.74,87.06c-2.98-0.41-9.6-0.55-21.53-0.55c-0.02,0-0.04,0-0.05,0s-0.04,0-0.05,0 c-11.94,0-18.55,0.14-21.53,0.55c-1.81,0.25-2.5,2.5-0.19,4.02c4.26,2.8,10.65,4.71,21.78,4.79c11.13-0.07,17.52-1.99,21.78-4.79 C87.24,89.56,86.55,87.31,84.74,87.06z" fill="#422B0D"/>
  <path d="M73.51,13.93c-0.05-0.07-0.1-0.13-0.15-0.19c-1.11-1.39-5.02-3.41-6.83-2.39 c-0.8,0.45-1.07,2.02-1.44,2.8c-0.65,1.37-1.49,2.62-2.32,3.89c-2.63,4.01-43.48,34.05-43.48,34.05L7.67,50.17 C6.56,53,6.41,56.33,6.41,56.33s3.17,2.31,16.34,1.55c8.51-0.49,24.79-7.48,27.86-12.6c0.75-1.25,6.99-9.94,6.93-10.7 c1.41-0.74,8.49-5.06,12.15-8.12c2.79-2.33,4.57-4.18,4.9-7.95C74.73,16.92,74.45,15.23,73.51,13.93z" fill="#F09300"/>
  <path d="M44.04,47.94L44.04,47.94c-4.19,0-8,3.54-8,9.42s3.81,9.42,8,9.42l0,0c4.19,0,8-3.54,8-9.42 S48.24,47.94,44.04,47.94z" fill="#422B0D"/>
  <g id="peepers_39_">
    <path d="M43.65,51.87L43.65,51.87c-1.03-0.72-2.58-0.49-3.58,0.95c-1,1.45-0.67,2.97,0.36,3.69l0,0 c1.03,0.72,2.58,0.49,3.58-0.95S44.69,52.59,43.65,51.87z" fill="#896024"/>
  </g>
  <path d="M82.4,47.94L82.4,47.94c-4.19,0-8,3.54-8,9.42s3.81,9.42,8,9.42l0,0c4.19,0,8-3.54,8-9.42 S86.59,47.94,82.4,47.94z" fill="#422B0D"/>
  <g id="peepers_6_">
    <path d="M82.01,51.87L82.01,51.87c-1.03-0.72-2.58-0.49-3.58,0.95c-1,1.45-0.67,2.97,0.36,3.69l0,0 c1.03,0.72,2.58,0.49,3.58-0.95C83.38,54.11,83.04,52.59,82.01,51.87z" fill="#896024"/>
  </g>
  <g>
    <linearGradient id="SVGID_1_" gradientUnits="userSpaceOnUse" x1="51.815" x2="35.7392" y1="59.9018" y2="20.1638">
      <stop offset="0" stop-color="#FFC400"/>
      <stop offset="1" stop-color="#FFF176"/>
    </linearGradient>
    <path d="M7.67,50.17c-8.08-8.1-5.56-26.65,9.86-30.96c7.22-2.02,10.41-4.34,14.36-5.8 c5.45-2.02,12.4-6.37,14.86-6.51c3.25-0.18,4.57,2.46,4.57,2.46s3.2-1.79,5.46-3.16s3.77-1.83,5.13-1.05 c1.63,0.92,2.57,3.22,2.57,3.22s1.03-0.89,2.12-1.96c1.51-1.48,4.38-1.01,5.61,1.54c1.12,2.32-1.02,7.33-1.02,7.33 s3.24,0.02,1.74,4.77s-3.95,5.85-5.76,7.47s-6.99,4.71-9.27,6.12c0,0,1.87,2.18,1.09,4.97c-0.35,1.24-1.47,2.07-2.43,2.89 c-1.34,1.15-8.16,5.82-9.6,6.84c-3.4,2.41-14,7.65-20.25,8.02C26.69,56.35,15.92,58.45,7.67,50.17z" fill="url(#SVGID_1_)"/>
    <path d="M15.84,41.29c-1.31,0.65-3.05-0.11-1.79-1.59c2.45-2.46,5.28-4.58,7.28-7.46 c1.08-1.38,1.96-3.02,2.33-3.7c0.37-0.68,0.96-1.42,1.27-0.55c0.21,0.6-0.16,1.87-0.51,2.79C22.49,34.83,19.79,39,15.84,41.29z" fill="#F09300"/>
    <path d="M73.52,20.45c1.68-4.69-1.71-5.85-1.71-5.85s2.37-4.41,0.57-7.47c-1.34-2.29-3.11-2.67-5.18-1.61 c-1.42,0.73-2.82,2.13-2.82,2.13s-0.36-2.2-1.99-3.12c-1.95-0.94-3.42-0.92-6.33,1.32c-1.72,1.32-4.75,3.52-4.75,3.52 c-1.94-3.12-4.47-2.47-4.57-2.46c-2.47,0.13-9.41,4.49-14.86,6.51c-3.95,1.46-7.9,2.11-14.9,4.79C3.38,23.42,0.66,33.51,3.57,42.84 c-0.7-14,7.41-19.12,14.48-21.83c4-1.53,6.96-2.38,9.57-3.12c4.66-1.18,8.98-3.08,13.24-5.3c2.18-1.09,3.65-1.97,4.43-2.35 c1.04-0.5,2.22-0.4,3.06,0.12c0.81,0.5,1.85,1.74,0.41,3.65c-1.18,1.56-4.43,2.77-7.36,4.13c-1.65,0.83-11.35,4.98-9.7,7.25 c0.29,0.43,0.82,0.64,1.32,0.51c0.43-0.14,1.27-0.2,1.58-0.57c2.58-2.55,5.95-3.74,9.37-5.41c3.8-1.77,6.95-3.24,8.7-7.75 l0.59-0.38c1.24-1.03,3.74-3.12,5.49-4.46c1.35-1.28,4.04-0.34,4.34,1.36c0.3,1.7-0.82,3.27-3.18,5.84 c-4.25,4.34-14.53,8.24-18.93,13.5c-0.73,0.87,0.17,2.27,1.27,1.96c0.5-0.14,1.21-0.33,2.44-1.79s4.43-3.52,8.31-5.83 c5.13-3.11,9.99-7.18,12.05-12.3c0.61-1.51,2.42-2.46,4.09-2.48c1.81,0.01,3.06,2.27,1.61,5.23c-0.65,1.34-1.28,2.53-4.24,5.69 c-2.62,2.79-6.17,4.87-9.9,7.01c-3.34,1.91-6.64,4.03-8.22,5.92c-0.78,0.87-0.29,2.32,0.86,2.04c0.48-0.1,0.73,0.25,1.87-1.09 c1.14-1.34,3.58-3.22,6.58-4.93c5.31-2.71,9.7-6.58,12.96-10.98c0,0,2.01,0.23,1.38,2.83c-1.77,7.38-10.63,10.06-16.3,14.11 c-3.36,1.72-11.59,8.41-13.23,7.69c-3.65-1.61-13.17-2.17-18.55,2.91c-0.6,0.57-1.58,1.58-1.26,2c0.32,0.42,1.02-0.17,1.49-0.47 c4.24-2.68,10.2-3.98,17.45-1.7c1.52,0.48,12.22-6.57,15.38-8.53c-0.05-0.03,5.47-3.37,8.46-5.45 C68.49,27.78,71.82,25.19,73.52,20.45z" fill="#F09300"/>
    <path d="M58.55,33.99C58.55,33.99,58.55,33.99,58.55,33.99c0.46-0.29-2.13,1.25-2.13,1.25 c0.15,0.16,1.51,1.51,1.25,2.43c-0.11,0.4,0.03,1.35-2.06,2.87c-1.12,0.81-10.54,7.43-10.54,7.43c-23.74,15.85-39.04,0.55-37.4,2.2 c0.01,0.01,0.02,0.02,0.03,0.03c8.24,8.24,19.42,7.05,19.42,7.05c10.2-1.51,16.8-5.93,20.2-8.34c1.44-1.02,8.69-6.09,10.03-7.24 c0.96-0.82,2.01-1.74,2.36-2.99C60.47,35.96,58.65,34.09,58.55,33.99z" fill="#F09300"/>
  </g>
</svg>

<svg viewBox="0 0 128 128" xmlns="http://www.w3.org/2000/svg">
  <defs>
    <radialGradient id="face_1_" cx="63.6" cy="-65.8999" gradientTransform="matrix(1 0 0 -1 0 0)" gradientUnits="userSpaceOnUse" r="56.9597">
      <stop offset="0.5" stop-color="#FDE030"/>
      <stop offset="0.9188" stop-color="#F7C02B"/>
      <stop offset="1" stop-color="#F4A223"/>
    </radialGradient>
    <linearGradient id="SVGID_1_" gradientUnits="userSpaceOnUse" x1="51.815" x2="35.7392" y1="59.9018" y2="20.1638">
      <stop offset="0" stop-color="#FFC400"/>
      <stop offset="1" stop-color="#FFF176"/>
    </linearGradient>
  </defs>
  <path id="face_8_" d="M63.6,121.8 C35.7,121.8 5.6,104.3 5.6,65.9 C5.6,27.5 35.7,10 63.6,10 C79.1,10 93.4,15.1 104,24.4 C115.5,34.6 121.6,49 121.6,65.9 C121.6,82.8 115.5,97.1 104,107.3 C93.4,116.6 79,121.8 63.6,121.8 Z" fill="url(#face_1_)"/>
  <path d="M111.49,32.67 C116.82,41.27 119.6,51.51 119.6,62.9 C119.6,79.8 113.5,94.1 102,104.3 C91.4,113.6 77,118.8 61.6,118.8 C43.54,118.8 24.56,111.45 13.42,95.86 C24.18,113.52 44.41,121.8 63.6,121.8 C79,121.8 93.4,116.6 104,107.3 C115.5,97.1 121.6,82.8 121.6,65.9 C121.6,53.16 118.13,41.84 111.49,32.67 Z" fill="#EB8F00"/>
  <path d="M84.74,87.06 C81.76,86.65 75.14,86.51 63.21,86.51 C63.19,86.51 63.17,86.51 63.16,86.51 C63.15,86.51 63.12,86.51 63.11,86.51 C51.17,86.51 44.56,86.65 41.58,87.06 C39.77,87.31 39.08,89.56 41.39,91.08 C45.65,93.88 52.04,95.79 63.17,95.87 C74.3,95.8 80.69,93.88 84.95,91.08 C87.24,89.56 86.55,87.31 84.74,87.06 Z" fill="#422B0D"/>
  <path d="M73.51,13.93 C73.46,13.86 73.41,13.8 73.36,13.74 C72.25,12.35 68.34,10.33 66.53,11.35 C65.73,11.8 65.46,13.37 65.09,14.15 C64.44,15.52 63.6,16.77 62.77,18.04 C60.14,22.05 19.29,52.09 19.29,52.09 L7.67,50.17 C6.56,53 6.41,56.33 6.41,56.33 C6.41,56.33 9.58,58.64 22.75,57.88 C31.26,57.39 47.54,50.4 50.61,45.28 C51.36,44.03 57.6,35.34 57.54,34.58 C58.95,33.84 66.03,29.52 69.69,26.46 C72.48,24.13 74.26,22.28 74.59,18.51 C74.73,16.92 74.45,15.23 73.51,13.93 Z" fill="#F09300"/>
  <path d="M44.04,47.94 L44.04,47.94 C39.85,47.94 36.04,51.48 36.04,57.36 C36.04,63.24 39.85,66.78 44.04,66.78 L44.04,66.78 C48.23,66.78 52.04,63.24 52.04,57.36 C52.04,51.48 48.24,47.94 44.04,47.94 Z" fill="#422B0D"/>
  <path d="M43.65,51.87 L43.65,51.87 C42.62,51.15 41.07,51.38 40.07,52.82 C39.07,54.27 39.4,55.79 40.43,56.51 L40.43,56.51 C41.46,57.23 43.01,57 44.01,55.56 C45.01,54.12 44.69,52.59 43.65,51.87 Z" fill="#896024"/>
  <path d="M82.4,47.94 L82.4,47.94 C78.21,47.94 74.4,51.48 74.4,57.36 C74.4,63.24 78.21,66.78 82.4,66.78 L82.4,66.78 C86.59,66.78 90.4,63.24 90.4,57.36 C90.4,51.48 86.59,47.94 82.4,47.94 Z" fill="#422B0D"/>
  <path d="M82.01,51.87 L82.01,51.87 C80.98,51.15 79.43,51.38 78.43,52.82 C77.43,54.27 77.76,55.79 78.79,56.51 L78.79,56.51 C79.82,57.23 81.37,57 82.37,55.56 C83.38,54.11 83.04,52.59 82.01,51.87 Z" fill="#896024"/>
  <path d="M7.67,50.17 C-0.41,42.07 2.11,23.52 17.53,19.21 C24.75,17.19 27.94,14.87 31.89,13.41 C37.34,11.39 44.29,7.04 46.75,6.9 C50,6.72 51.32,9.36 51.32,9.36 C51.32,9.36 54.52,7.57 56.78,6.2 C59.04,4.83 60.55,4.37 61.91,5.15 C63.54,6.07 64.48,8.37 64.48,8.37 C64.48,8.37 65.51,7.48 66.6,6.41 C68.11,4.93 70.98,5.4 72.21,7.95 C73.33,10.27 71.19,15.28 71.19,15.28 C71.19,15.28 74.43,15.3 72.93,20.05 C71.43,24.8 68.98,25.9 67.17,27.52 C65.36,29.14 60.18,32.23 57.9,33.64 C57.9,33.64 59.77,35.82 58.99,38.61 C58.64,39.85 57.52,40.68 56.56,41.5 C55.22,42.65 48.4,47.32 46.96,48.34 C43.56,50.75 32.96,55.99 26.71,56.36 C26.69,56.35 15.92,58.45 7.67,50.17 Z" fill="url(#SVGID_1_)"/>
  <path d="M15.84,41.29 C14.53,41.94 12.79,41.18 14.05,39.7 C16.5,37.24 19.33,35.12 21.33,32.24 C22.41,30.86 23.29,29.22 23.66,28.54 C24.03,27.86 24.62,27.12 24.93,27.99 C25.14,28.59 24.77,29.86 24.42,30.78 C22.49,34.83 19.79,39 15.84,41.29 Z" fill="#F09300"/>
  <path d="M73.52,20.45 C75.2,15.76 71.81,14.6 71.81,14.6 C71.81,14.6 74.18,10.19 72.38,7.13 C71.04,4.84 69.27,4.46 67.2,5.52 C65.78,6.25 64.38,7.65 64.38,7.65 C64.38,7.65 64.02,5.45 62.39,4.53 C60.44,3.59 58.97,3.61 56.06,5.85 C54.34,7.17 51.31,9.37 51.31,9.37 C49.37,6.25 46.84,6.9 46.74,6.91 C44.27,7.04 37.33,11.4 31.88,13.42 C27.93,14.88 23.98,15.53 16.98,18.21 C3.38,23.42 0.66,33.51 3.57,42.84 C2.87,28.84 10.98,23.72 18.05,21.01 C22.05,19.48 25.01,18.63 27.62,17.89 C32.28,16.71 36.6,14.81 40.86,12.59 C43.04,11.5 44.51,10.62 45.29,10.24 C46.33,9.74 47.51,9.84 48.35,10.36 C49.16,10.86 50.2,12.1 48.76,14.01 C47.58,15.57 44.33,16.78 41.4,18.14 C39.75,18.97 30.05,23.12 31.7,25.39 C31.99,25.82 32.52,26.03 33.02,25.9 C33.45,25.76 34.29,25.7 34.6,25.33 C37.18,22.78 40.55,21.59 43.97,19.92 C47.77,18.15 50.92,16.68 52.67,12.17 L53.26,11.79 C54.5,10.76 57,8.67 58.75,7.33 C60.1,6.05 62.79,6.99 63.09,8.69 C63.39,10.39 62.27,11.96 59.91,14.53 C55.66,18.87 45.38,22.77 40.98,28.03 C40.25,28.9 41.15,30.3 42.25,29.99 C42.75,29.85 43.46,29.66 44.69,28.2 C45.92,26.74 49.12,24.68 53,22.37 C58.13,19.26 62.99,15.19 65.05,10.07 C65.66,8.56 67.47,7.61 69.14,7.59 C70.95,7.6 72.2,9.86 70.75,12.82 C70.1,14.16 69.47,15.35 66.51,18.51 C63.89,21.3 60.34,23.38 56.61,25.52 C53.27,27.43 49.97,29.55 48.39,31.44 C47.61,32.31 48.1,33.76 49.25,33.48 C49.73,33.38 49.98,33.73 51.12,32.39 C52.26,31.05 54.7,29.17 57.7,27.46 C63.01,24.75 67.4,20.88 70.66,16.48 C70.66,16.48 72.67,16.71 72.04,19.31 C70.27,26.69 61.41,29.37 55.74,33.42 C52.38,35.14 44.15,41.83 42.51,41.11 C38.86,39.5 29.34,38.94 23.96,44.02 C23.36,44.59 22.38,45.6 22.7,46.02 C23.02,46.44 23.72,45.85 24.19,45.55 C28.43,42.87 34.39,41.57 41.64,43.85 C43.16,44.33 53.86,37.28 57.02,35.32 C56.97,35.29 62.49,31.95 65.48,29.87 C68.49,27.78 71.82,25.19 73.52,20.45 Z" fill="#F09300"/>
  <path d="M58.55,33.99 C58.55,33.99 58.55,33.99 58.55,33.99 C59.01,33.7 56.42,35.24 56.42,35.24 C56.57,35.4 57.93,36.75 57.67,37.67 C57.56,38.07 57.7,39.02 55.61,40.54 C54.49,41.35 45.07,47.97 45.07,47.97 C21.33,63.82 6.03,48.52 7.67,50.17 C7.68,50.18 7.69,50.19 7.7,50.2 C15.94,58.44 27.12,57.25 27.12,57.25 C37.32,55.74 43.92,51.32 47.32,48.91 C48.76,47.89 56.01,42.82 57.35,41.67 C58.31,40.85 59.36,39.93 59.71,38.68 C60.47,35.96 58.65,34.09 58.55,33.99 Z" fill="#F09300"/>
</svg>
